X: 48
T: Ach wie fl\"uchtig, ach wie nichtig / 48. Ach wie fl\"uchtig, ach wie nichtig / Cantata, BWV 26: Ach wie fl\"uhtig, ach wie nichtig
N: Derived from chor048.krn
C: Johann Sebastian Bach
%%abc-version 2.0
%%abcx-abcm2ps-target-version 5.9.1 (29 Sep 2008)
%%abc-creator hum2abc beta
%%abcx-conversion-date 2019/03/11 17:28:17
%%abc-edited-by Craig Stuart Sapp
%%humdrum-veritas 80477508
%%humdrum-veritas-data 796613217
%%
%%barnumbers 0
L: 1/4
M: C
%%staves [1 2 3 4]
V: 1 clef=treble
V: 2 clef=treble
V: 3 clef=treble-8
V: 4 clef=bass
K: C
[V:1] ABc!fermata!c | 
[V:2] EEE!fermata!E | 
[V:3] cBA!fermata!A | 
[V:4] A,^G,A,!fermata!A,, | 
[V:1] cde!fermata!e | 
[V:2] EGG!fermata!G | 
[V:3] ABc!fermata!c | 
[V:4] A,=G,C!fermata!C, | 
[V:1] eedc | 
[V:2] Gc-c/BA/ | 
[V:3] c/d/c/B/ A/B/c/e/ | 
[V:4] C/B,/A,/G,/ ^F,/^G,/A, | 
[V:1] B3/A/!fermata!A2 | 
[V:2] A^G!fermata!E2 | 
[V:3] =fe/d/!fermata!^c2 | 
[V:4] D,E,!fermata!A,,2 | 
[V:1] eeff | 
[V:2] AAA_B | 
[V:3] ^c/d/e/^c/dd | 
[V:4] A,,/B,,/^C,/A,,/ D,/=C,/ _B,,/A,,/ | 
[V:1] eed!fermata!d | 
[V:2] _BA/G/ G/E/!fermata!^F | 
[V:3] d^cd!fermata!A | 
[V:4] G,,/E,,/A,,D,!fermata!D,, | 
[V:1] ddee | 
[V:2] GGGA | 
[V:3] B/=c/d/B/cc | 
[V:4] G,,/A,,/B,,/G,,/ C,/B,,/A,,/G,,/ | 
[V:1] ddc!fermata!c | 
[V:2] AG/F/ F/D/!fermata!E | 
[V:3] cBc!fermata!G | 
[V:4] F,,/D,,/G,,C,!fermata!C,, | 
[V:1] cded/c/ | 
[V:2] FFEE | 
[V:3] AABA | 
[V:4] F,E,/D,/ ^G,,/^G,/A, | 
[V:1] BBA!fermata!A |]  
[V:2] ^FE/=D/ D/B,/!fermata!^C |]  
[V:3] A^GA!fermata!E |]  
[V:4] ^D,E,A,!fermata!A,, |]  



